X: 692
T: John Brown's Dream
B: jims roots
M:C|
L:1/8
R: Reel
Q: 1/4=100
K:A
V:1 
3efg |"A"a2 {ab}af e2 ef | a2 {gab}aa b2 (3 ef(a | a)baf ecBA | "E"AcBG "A"A2(3efg|
"A"a2af {ag}fe ef|afaa b2 (3e/f/g/(a| a)baf ecBA| "E"ecBG "A"A2||
"A"[e2(e2]| [e2)e2][ee][ee] [ee]dcd | ecBA c2[e2(e2] | [e2)e2][ee][ee] [ee]dcd | "E"ecBG "A"A2([e2e2] |
"A"[e2e2])[ee][ee] [ee]dcd | ecBA c2[e2(e2] | [e2)e2][ee][ee] [ee]dcd |"E"ecBG "A"A2||
"A"(3EFG | AEA2 cABG | AEAd cABG | A3A cABc | "E"AcBG "A"AEEF |
"A"AEA2 dcBG | AE A2 cABG | A2cA cABc | "E"AcBc "A"AE [A,2E2]||
"A"A,2|:CA,B,A, A,2B,A, | CA,B,C A,2B,A,| CA,B,C A,CB,C |[1,2A,2A,4B,A,:| [3 A,2A,4||
% abcbook-tune_id 6298c25d535bdfc9a7b86a1f


% abcbook-boost 0
% abcbook-tablature 
% abcbook-transpose 
% abcbook-lastupdated 1654178399235
% abcbook-soundfonts 
% abcbook-repeats 1


